X:1
T:Attaignant_EtQuandJeSuisCouchee
T:Attaignant_EtQuandJeSuisCouchee
T:Anonyme
C:Anonyme
%%score [ 1 2 3 4 ]
L:1/8
Q:1/4=206
M:6/4
K:F
V:1 treble nm="Soprano" snm="S"
V:2 treble-8 nm="Tenor" snm="T"
V:3 treble-8 nm="Tenor" snm="T"
V:4 bass nm="Basse" snm="B"
V:1
 z2 z2 C2 F4 F2 | F4 G2 A6 | A4 A2 G4 F2 | F4 E2 F4 C2 | F4 F2 F4 G2 | A6 A4 A2 | G4 F2 F4 E2 | %7
w: Et quant je|suis cou- ché-|e, O mon vil-|lain ma- ry, Sans|ces- se suis noi-|sé- e, Et|aus- si noi- se|
 F4 C2 D4 D2 | D4 E2 C4 C2 | D3 D D2 D4 E2 | C4 C2 C2 c4 | B4 B2 B4 B2 | A6 A4 A2 | G3 G G2 G4 A2 | %14
w: lui tant sa- gri-|gneu- se- ment, Ar-|riè- re vil- lain, a-|vant, a- vant, Je|pleure et mau- ditz|l'heu- re De|quoy le vil- lain vit|
 F4 F2 E4 F2 | G3 G G2 G4 A2 | F4 F2 F4 C2 | D3 D D2 D4 E2 | C4 C2 C4 C2 | D3 D D2 D4 E2 | %20
w: tant, vit tant, De|quoy le vil- lain vit|tant, vit tant, Ar-|riè- re vil- lain, a-|vant, a- vant, Ar-|riè- re vil- lain, a-|
 C4 C2 C6- | C12 |] %22
w: vant, a- vant.||
V:2
 z2 z2 c2 d4 d2 | d4 d2 f6 | f4 f2 e4 d2 | d2 c4 A4 A2 | c4 c2 d4 d2 | f6 f4 f2 | e4 d2 d2 c4 | %7
w: Et quant je|suis cou- ché-|e, O mon vil-|lain ma- ry, Sans|ces- se suis noi-|sé- e, Et|aus- si noi- se|
 A4 A2 B4 B2 | B4 c2 A4 A2 | F3 F F2 B3 A GF | E4 F2 A4 f2 | f4 f2 f4 f2 | f6 e4 e2 | %13
w: lui tant sa- gri-|gneu- se- ment, Ar-|riè- re vil- lain, a- * *|vant, a- vant, Je|pleure et mau- ditz|l'heu- re De|
 d3 d d2 e4 e2 | d4 c2 c4 f2 | e3 e e2 e4 f2 | d4 d2 c4 A2 | F3 F F2 B3 A GF | E4 F2 A4 A2 | %19
w: quoy le vil- lain vit|tant, vit tant, De|quoy le vil- lain vit|tant, vit tant, Ar-|riè- re vil- lain, a- * *|vant, a- vant, Ar-|
 F3 F F2 B3 A GF | E4 F2 A6- | A12 |] %22
w: riè- re vil- lain, a- * *|vant, a- vant.||
V:3
 z2 z2 G2 B4 B2 | A4 B2 c6 | c4 c2 c4 A2 | B2 G4 F4 F2 | A4 A2 A4 B2 | c6 c4 c2 | c4 A2 B2 G4 | %7
w: Et quant je|suis cou- ché-|e, O mon vil-|lain ma- ry, Sans|ces- se suis noi-|sé- e, Et|aus- si noi- se|
 F4 F2 F4 F2 | F4 G2 F6 | z2 z2 F2 G3 G G2 | G4 A2 F4 A2 | d4 d2 d4 d2 | c6 c4 c2 | B3 B B2 c4 c2 | %14
w: lui tant sa- gri-|gneu- se- ment,|Ar- riè- re vil-|lain, a- vant, Je|pleure et mau- ditz|l'heu- re De|quoy le vil- lain vit|
 B4 A2 G4 F2 | c3 c c2 c4 c2 | B4 B2 A6 | z2 z2 F2 G3 G G2 | G4 A2 F4 F2 | F4 F2 G3 G G2 | %20
w: tant, vit tant, De|quoy le vil- lain vit|tant, vit tant,|Ar- riè- re vil-|lain, a- vant, a-|vant, Ar- riè- re vil-|
 G4 A2 F4 F2 | F12 |] %22
w: lain, a- vant, a-|vant.|
V:4
 z2 z2 C,2 B,,4 B,,2 | D,4 G,2 F,6 | F,4 F,2 C,4 D,2 | B,,2 C,4 F,,4 F,2 | F,4 F,2 D,4 G,2 | %5
w: Et quant je|suis cou- ché-|e, O mon vil-|lain ma- ry, Sans|ces- se suis noi-|
 F,6 F,4 F,2 | C,4 D,2 B,,2 C,4 | F,,4 F,2 B,,4 B,,2 | D,4 C,2 F,,4 F,,2 | B,,3 B,, B,,2 G,,4 C,2 | %10
w: sé- e, Et|aus- si noi- se|lui tant sa- gri-|gneu- se- ment, Ar-|riè- re vil- lain, a-|
 C,4 F,,2 F,,4 F,2 | B,,4 B,,2 B,,4 B,,2 | F,6 C,4 C,2 | G,,3 G,, G,,2 C,4 A,,2 | %14
w: vant, a- vant, Je|pleure et mau- ditz|l'heu- re De|quoy le vil- lain vit|
 B,,4 F,,2 C,4 D,2 | C,3 C, C,2 C,4 F,2 | B,,4 B,,2 F,,4 F,,2 | B,,3 B,, B,,2 G,,4 C,2 | %18
w: tant, vit tant, De|quoy le vil- lain vit|tant, vit tant, Ar-|riè- re vil- lain, a-|
 C,4 F,,2 F,,4 F,,2 | B,,3 B,, B,,2 G,,4 C,2 | C,4 F,,2 F,,6- | F,,12 |] %22
w: vant, a- vant, Ar-|riè- re vil- lain, a-|vant, a- vant.||

